X: 41164
T: Tripping On The Mountain
R: polka
M: 2/4
K: Dmajor
|:fg|"D" a2 f2 gfeg|f2 d2 d2 fg|a2 f2 gfeg|"A" b e3 e2 fg|
"D" a2 f2 gfeg|f2 d2 "A" e2 A2|"D" d2 d2 AABc|d d3 d2:|
|:BA|d2 AA F2 ED|dBFE D2 FD|d2 AA F2 ED|"A" EDEF E2 FA|
"D" d2 AA F2 ED|"G" GABc d2 dd|"A" ABcd egfe|"D" d2 dd d2:|

